icons/camera-alt-1.svg

<svg xmlns="http://www.w3.org/2000/svg" viewBox="0 0 24 24" fill="currentColor">
  <path d="M8.8 4.2002c-.58579 0-1.05.4642-1.05 1.04998v1.29999c0 .41421-.33579.75-.75.75l-.0213-.0003C5.20258 7.31146 3.75 8.77112 3.75 10.5498v6c0 1.7858 1.46421 3.25 3.25 3.25h10c1.5279 0 2.8205-1.0719 3.1619-2.5H19.9c-1.4142 0-2.65-1.2358-2.65-2.65v-2.2c0-1.4142 1.2358-2.65 2.65-2.65h.2619c-.3414-1.42809-1.634-2.5-3.1619-2.5-.4142 0-.75-.33578-.75-.75 0-.01673.0005-.03334.0016-.0498-.0011-.01646-.0016-.03307-.0016-.0498V5.25018c0-.58578-.4642-1.04998-1.05-1.04998H8.8Zm11.45 7.0996h-.35c-.5858 0-1.15.5642-1.15 1.15v2.2c0 .5858.5642 1.15 1.15 1.15h.35v-4.5Zm1.5 5.25v-6c0-2.35914-1.7393-4.32867-4-4.69054v-.60908c0-1.41422-1.1358-2.54998-2.55-2.54998H8.8c-1.4142 0-2.55 1.13576-2.55 2.54998v.60908c-2.26066.36187-4 2.3314-4 4.69054v6c0 2.6142 2.13579 4.75 4.75 4.75h10c2.6142 0 4.75-2.1358 4.75-4.75Zm-12-2c0-1.2426 1.0074-2.25 2.25-2.25s2.25 1.0074 2.25 2.25-1.0074 2.25-2.25 2.25-2.25-1.0074-2.25-2.25Zm2.25-3.75c-2.07107 0-3.75 1.6789-3.75 3.75s1.67893 3.75 3.75 3.75c2.0711 0 3.75-1.6789 3.75-3.75s-1.6789-3.75-3.75-3.75Zm-2.75-2.25c0-.41421.33579-.75.75-.75h4c.4142 0 .75.33579.75.75 0 .41422-.3358.75-.75.75h-4c-.41421 0-.75-.33578-.75-.75Z"/>
</svg>

<svg width="24" height="24" viewBox="0 0 24 24" fill="none" xmlns="http://www.w3.org/2000/svg">
<path fill-rule="evenodd" clip-rule="evenodd" d="M8.8 4.2002C8.21421 4.2002 7.75 4.6644 7.75 5.25018V6.5498V6.55017C7.75 6.96438 7.41421 7.30017 7 7.30017L6.9787 7.29987C5.20258 7.31146 3.75 8.77112 3.75 10.5498V16.5498C3.75 18.3356 5.21421 19.7998 7 19.7998H17C18.5279 19.7998 19.8205 18.7279 20.1619 17.2998H19.9C18.4858 17.2998 17.25 16.064 17.25 14.6498V12.4498C17.25 11.0356 18.4858 9.7998 19.9 9.7998H20.1619C19.8205 8.37171 18.5279 7.2998 17 7.2998C16.5858 7.2998 16.25 6.96402 16.25 6.5498C16.25 6.53307 16.2505 6.51646 16.2516 6.5C16.2505 6.48354 16.25 6.46693 16.25 6.4502V5.25018C16.25 4.6644 15.7858 4.2002 15.2 4.2002H8.8ZM20.25 11.2998H19.9C19.3142 11.2998 18.75 11.864 18.75 12.4498V14.6498C18.75 15.2356 19.3142 15.7998 19.9 15.7998H20.25V11.2998ZM21.75 16.5498V10.5498C21.75 8.19066 20.0107 6.22113 17.75 5.85926V5.25018C17.75 3.83596 16.6142 2.7002 15.2 2.7002H8.8C7.3858 2.7002 6.25 3.83596 6.25 5.25018V5.85926C3.98934 6.22113 2.25 8.19066 2.25 10.5498V16.5498C2.25 19.164 4.38579 21.2998 7 21.2998H17C19.6142 21.2998 21.75 19.164 21.75 16.5498ZM9.75 14.5498C9.75 13.3072 10.7574 12.2998 12 12.2998C13.2426 12.2998 14.25 13.3072 14.25 14.5498C14.25 15.7924 13.2426 16.7998 12 16.7998C10.7574 16.7998 9.75 15.7924 9.75 14.5498ZM12 10.7998C9.92893 10.7998 8.25 12.4787 8.25 14.5498C8.25 16.6209 9.92893 18.2998 12 18.2998C14.0711 18.2998 15.75 16.6209 15.75 14.5498C15.75 12.4787 14.0711 10.7998 12 10.7998ZM9.25 8.5498C9.25 8.13559 9.58579 7.7998 10 7.7998H14C14.4142 7.7998 14.75 8.13559 14.75 8.5498C14.75 8.96402 14.4142 9.2998 14 9.2998H10C9.58579 9.2998 9.25 8.96402 9.25 8.5498Z" fill="black"/>
</svg>
